X: 76
T: Pollonesse #76
M: 3/4
L: 1/16
K: F
Q:120
F2GA Bcde f2a2|gaeg fefg f4|ddbd ccac BBgB|Acfa gfed c4|
fgAc fefg a2f2|egBd c2gf fedc|d2de fefg a2f2|edcB c4 C4:|
cBcd c2c2 ABcA|d2e2 gfef g4|BABc B2B2 G2AB|A2c2 fage f4|
FAce f2c2 afef|g2ga b2bg fedB f2fe d2dc B2BA|GFGA F4 F4:|
N: Jämför nr. 37

